dist/svg/shopping-bag-fill.svg

<svg xmlns="http://www.w3.org/2000/svg" viewBox="0 0 24 24"><path d="M6.9 4.259a2 2 0 0 1-.16.04c-.178.04-3.356 3.216-3.441 3.44-.054.142-.06.784-.05 5.461l.011 5.3.109.32c.151.445.362.783.695 1.116s.671.544 1.116.695l.32.109h13l.32-.109a2.74 2.74 0 0 0 1.116-.695c.333-.333.544-.671.695-1.116l.109-.32.012-5.28c.009-3.858 0-5.323-.033-5.44-.038-.134-.306-.421-1.632-1.752-.873-.876-1.65-1.632-1.727-1.68l-.14-.088-5.14-.007a524 524 0 0 0-5.18.006M17.44 6.5l.739.74H5.821l.739-.74.739-.74h9.402zm-9.08 3.841a.85.85 0 0 1 .319.334c.027.052.065.286.086.52.081.946.379 1.567 1.047 2.189.633.588 1.319.856 2.188.856s1.555-.268 2.188-.856c.668-.622.966-1.243 1.047-2.189.038-.436.072-.545.22-.709.136-.15.308-.219.545-.219.363 0 .631.202.723.545.104.381-.095 1.459-.389 2.118a4.94 4.94 0 0 1-2.404 2.404 4.75 4.75 0 0 1-4.53-.368c-.694-.449-1.389-1.266-1.734-2.036-.294-.659-.493-1.737-.389-2.118.049-.181.199-.385.337-.46a.87.87 0 0 1 .746-.011"/></svg>

<svg fill="none" xmlns="http://www.w3.org/2000/svg" viewBox="0 0 24 24"><path d="M6.900 4.259 C 6.878 4.267,6.806 4.285,6.740 4.299 C 6.562 4.339,3.384 7.515,3.299 7.739 C 3.245 7.881,3.239 8.523,3.249 13.200 L 3.260 18.500 3.369 18.820 C 3.520 19.265,3.731 19.603,4.064 19.936 C 4.397 20.269,4.735 20.480,5.180 20.631 L 5.500 20.740 12.000 20.740 L 18.500 20.740 18.820 20.631 C 19.265 20.480,19.603 20.269,19.936 19.936 C 20.269 19.603,20.480 19.265,20.631 18.820 L 20.740 18.500 20.752 13.220 C 20.761 9.362,20.752 7.897,20.719 7.780 C 20.681 7.646,20.413 7.359,19.087 6.028 C 18.214 5.152,17.437 4.396,17.360 4.348 L 17.220 4.260 12.080 4.253 C 9.253 4.249,6.922 4.252,6.900 4.259 M17.440 6.500 L 18.179 7.240 12.000 7.240 L 5.821 7.240 6.560 6.500 L 7.299 5.760 12.000 5.760 L 16.701 5.760 17.440 6.500 M8.360 10.341 C 8.476 10.401,8.609 10.540,8.679 10.675 C 8.706 10.727,8.744 10.961,8.765 11.195 C 8.846 12.141,9.144 12.762,9.812 13.384 C 10.445 13.972,11.131 14.240,12.000 14.240 C 12.869 14.240,13.555 13.972,14.188 13.384 C 14.856 12.762,15.154 12.141,15.235 11.195 C 15.273 10.759,15.307 10.650,15.455 10.486 C 15.591 10.336,15.763 10.267,16.000 10.267 C 16.363 10.267,16.631 10.469,16.723 10.812 C 16.827 11.193,16.628 12.271,16.334 12.930 C 15.874 13.959,14.959 14.874,13.930 15.334 C 12.464 15.989,10.768 15.852,9.400 14.966 C 8.706 14.517,8.011 13.700,7.666 12.930 C 7.372 12.271,7.173 11.193,7.277 10.812 C 7.326 10.631,7.476 10.427,7.614 10.352 C 7.830 10.236,8.148 10.232,8.360 10.341 " stroke="none" fill-rule="evenodd"/></svg>
